!!!!SEGMENT: pl-sa--72-a-ii-12--001_anonim--fuga-pastoralis.krn
!!!cenid: 18xx:652
!!!COM: Anonim
!!!COM-rismid: pe30004985
!!!CDT:
!!!CNT:
!!!OTL: Fuga pastoralis
!!!PDT:
!!!AGN: Secular; Fugue
!!!SMS-siglum: PL-SA
!!!SMS-shelfmark: 72/A II 12
!!!SMS-shelfwork: 001 W
!!!SMS-variant:
!!!SMS-altvar:
!!!NIFC-rismid: 1001065747
!!!URL-scan: http://bc.bdsandomierz.pl/dlibra/publication/1349/edition/1317/content
!!!ONB-nifc: Str. 1 – str. 2 (s. 1)
**kern	**kern	**dynam
*part2	*part1	*part1
*staff2	*staff1	*
*Ipiano	*Ipiano	*
*I"Piano	*I"Piano	*
*group1	*group1	*
*clefF4	*clefC1	*
*k[f#]	*k[f#]	*
*G:	*G:	*
*M2/2	*M2/2	*
*met(c|)	*met(c|)	*
=1	=1	=1
*2\right	*2\right	*
!LO:TX:a:t=P:problem:oznaczenie metryczne C z ogonkiem	!LO:TX:a:t=P:problem:oznaczenie metryczne C z ogonkiem	!
1ryy	8g\L	.
.	8g\	.
.	8a\	.
.	8b\J	.
.	8cc\L	.
.	8cc\J	.
.	4cc\	.
=2	=2	=2
*	*^	*
1ryy	8cc#X\L	2reyy	.
.	8dd\J	.	.
.	4ee\	.	.
.	4dd/	8d\L	.
.	.	8d\	.
.	8r	8e\	.
.	8a/	8f#\J	.
=3	=3	=3	=3
1ryy	8.b/L	8g\L	.
.	.	8g\J	.
.	16cc/Jk	.	.
.	8dd/L	4g\	.
.	8ee/J	.	.
.	8a/L	8f#\L	.
.	8b/J	8g\J	.
.	4cc/	4a\	.
=4	=4	=4	=4
8G\L	2b/	4a\	.
8G\	.	.	.
8B\	.	2g\	.
8c\J	.	.	.
8d\L	2a/	.	.
8d\J	.	.	.
4d\	.	4f#\	.
=5	=5	=5	=5
*^	*	*	*
*2\right	*	*	*	*
8c#X\L	4ryy	2a/	8e\L	.
8d\J	.	.	8f#\J	.
4e\	4D\	.	4g\	.
4d\	8D\L	4a/	8f#\L	.
.	8E\J	.	8f#\	.
4cn\	4F#\	4r	8f#\	.
.	.	.	8g\J	.
*	*	*v	*v	*
=6	=6	=6	=6
8G\L	2rBByy	4.d/	.
8G\J	.	.	.
4G\	.	.	.
.	.	8e/	.
8A/L	8F#\L	8d/L	.
8B/J	8G\J	8e/	.
4c/	4A\	8e/	.
.	.	8f#/J	.
=7	=7	=7	=7
*	*	*^	*
8c/L	2E\	8g/L	2reyy	.
16B/L	.	8g/	.	.
16A/JJ	.	.	.	.
4B/ 4d	.	8b/	.	.
.	.	8cc/J	.	.
4.A/	2F#\	8dd/L	2a\	.
.	.	8dd/J	.	.
.	.	4dd/	.	.
8A/	.	.	.	.
*v	*v	*	*	*
=8	=8	=8	=8
*	*	*^	*
8A\L	8cc#X/L	4rDyy	8e\L	.
8F#\	8dd/J	.	8d\	.
8G\	4ee/	8b\L	8d\	.
8A\J	.	8a\J	8c#X\J	.
4D\	4dd/	4a\	8d\L	.
.	.	.	8d\	.
4r	4rddyy	4rDyy	8c#\	.
.	.	.	8c#\J	.
*	*v	*v	*v	*
=9	=9	=9
*^	*	*
8B/L	2rBByy	2r	.
8B/J	.	.	.
4A/	.	.	.
4B/	8B\L	8dd\L	.
.	8c\J	8dd\	.
4ryy	4A\	8cc\	.
.	.	8cc\J	.
!LO:LB:g=original	!LO:LB:g=original	!	!
=10	=10	=10	=10
8A\L	2rGGyy	8b\L	.
8G\	.	8b\J	.
8G\	.	4a\	.
8F#\J	.	.	.
4G/	8D\L	8b\L	.
.	8D\	8cc\J	.
4F#/	8C\	4a\	.
.	8C\J	.	.
=11	=11	=11	=11
*	*	*^	*
8BB\L	2rCCyy	4g/	8d\L	.
8BB\J	.	.	8d\	.
4AA\	.	4cc/	8e\	.
.	.	.	8f#\J	.
4E/	4GG\	4.b/	2reyy	.
4E/	4C#X\	.	.	.
.	.	8a/	.	.
*v	*v	*	*	*
=12	=12	=12	=12
4D\	8a/L	8f#\L	.
.	8b/J	8g\J	.
4r	4cc/	4a\	.
8G\L	2b/	8a\L	.
8G\	.	16g\L	.
.	.	16f#\JJ	.
8B\	.	4g\	.
8c#X\J	.	.	.
=13	=13	=13	=13
8d\L	4a/	4g\	.
8d\J	.	.	.
4d\	8f#/L	4d\	.
.	8b/J	.	.
8c#X\L	8a/L	8e\L	.
8d\J	8b/	8f#\J	.
4e\	8b/	4g\	.
.	8cc#X/J	.	.
=14	=14	=14	=14
*^	*	*^	*
4A/	8D\L	4dd/	8f#\L	2rEEyy	.
.	8D\	.	8f#\	.	.
4rFyy	8E\	4ccn/	8g\	.	.
.	8F#\J	.	8a\J	.	.
2rFyy	8G\L	8b/L	2g/	8d\L	.
.	8G\J	8cc/	.	8e\J	.
.	4G\	8cc/	.	4d\	.
.	.	8b/J	.	.	.
*	*	*	*v	*v	*
=15	=15	=15	=15	=15
8d/L	8F#\L	8a/L	2rcyy	.
8B/J	8G\J	8g/	.	.
4c/	4A\	8g/	.	.
.	.	8f#/J	.	.
2rFyy	4G\	8b/L	4e\	.
.	.	8a/	.	.
.	4r	8b/	4c\ 4g	.
.	.	8cc/J	.	.
*v	*v	*	*	*
=16	=16	=16	=16
2r	8f#/L	4d\	.
.	8a/	.	.
.	8d/	4c\	.
.	8a/J	.	.
4B\	8b/L	8g\L	.
.	8a/	8f#\	.
4G\	8b/	8g\	.
.	8cc/J	8a\J	.
*	*v	*v	*
=17	=17	=17
8D\L	4a/	.
8D\J	.	.
8C\L	4g/	.
8C\J	.	.
8BB/L	8d/L	.
8BB/J	8d/	.
4AA/	8c/	.
.	8c/J	.
=18	=18	=18
*^	*	*
!LO:TX:a:t=P:problem:mixed beam	!	!	!
8B/L	8GG\L	1ryy	.
8B/J	8G\J	.	.
4A/	8G\L	.	.
.	8Fn\J	.	.
8B/L	4E\	.	.
8c/J	.	.	.
8c/L	4D\	.	.
8B/J	.	.	.
=19	=19	=19	=19
4.G/	4E\	8cc\L	.
.	.	8cc\	.
.	4C\	8ee\	.
8A/	.	8ff#\J	.
8B/L	4.BB\	8gg\L	.
8B/J	.	8gg\J	.
4B/	.	4gg\	.
.	8BB\	.	.
=20	=20	=20	=20
*	*	*^	*
8A/L	2D\	8ff#\L	2reyy	.
8A/	.	8gg\J	.	.
8G/	.	4aa\	.	.
8F#/J	.	.	.	.
2G/	2D\	2gg/	8b\L	.
.	.	.	8a\	.
.	.	.	8b\	.
.	.	.	8cc\J	.
*v	*v	*	*	*
*	*v	*v	*
!LO:LB:g=original	!LO:LB:g=original	!
=21	=21	=21
8d\L	4a\	.
8c\	.	.
8B\	4g\	.
8A\J	.	.
8B\L	8dd/L	.
8A\	8cc/	.
8B\	8dd/	.
8c\J	8ee/J	.
=22	=22	=22
*^	*^	*
4A/	8D\L	4cc/	8g\L	.
.	8C\J	.	8f#\J	.
4A/	4D\	4b/	4g\	.
4G/	2AA\	4.a/	2d\	.
4F#/	.	.	.	.
.	.	8b/	.	.
=23	=23	=23	=23	=23
8E/L	8C#X\L	4a/	8e/L	.
8F#/J	8D\J	.	8d/J	.
4.G/	4E\	4r	8d\L	.
.	.	.	8cn\J	.
.	4D\	8dd/L	4a\	.
8F#/	.	8dd/J	.	.
8G/L	8E\L	8cc/L	4g\	.
8A/J	8F#\J	8cc/J	.	.
*v	*v	*	*	*
=24	=24	=24	=24
4G\	8b/L	8d\L	.
.	8b/J	8d\J	.
4C/	4a/	8e\L	.
.	.	8f#\J	.
8G\L	2rbyy	8g\L	.
8G\	.	8g\J	.
8B\	.	4g\	.
8c#X\J	.	.	.
=25	=25	=25	=25
8D\L	8f#/L	8d\L	.
8D\	8f#/	8d\J	.
8E\	8g/	4d\	.
8F#\J	8a/J	.	.
8G\L	8g/L	4d\	.
8G\J	8g/	.	.
4G\	8b/	4e\	.
.	8cc#X/J	.	.
=26	=26	=26	=26
*^	*	*	*
8A/L	2D\	8dd/L	8f#\L	.
8B/J	.	8dd/J	8g\J	.
!LO:TX:a:t=P:problem:brak pauzy ćwierćnutowej	!	!	!	!
4ryy	.	4dd/	8g\L	.
.	.	.	8f#\J	.
2A/	8AA\L	8cc#X/L	8e\L	.
.	8D\	8dd/J	8f#\J	.
.	8D\	4ee/	4g\	.
.	8C#X\J	.	.	.
=27	=27	=27	=27	=27
4A/	2D\	2dd/	8f#\L	.
.	.	.	8e\	.
4d/	.	.	8f#\	.
.	.	.	8g\J	.
8d\L	2rBByy	2rbyy	4e/	.
8c\J	.	.	.	.
4B/	.	.	4d/	.
=28	=28	=28	=28	=28
8B\L	2rBByy	8dd/L	2re	.
8A\J	.	8cc/	.	.
4B\	.	8dd/	.	.
.	.	8ee/J	.	.
8B/L	8E\L	4cc\	2reyy	.
8A/	8E\	.	.	.
8A/	8D\	4b\	.	.
8G/J	8D\J	.	.	.
*v	*v	*	*	*
*	*v	*v	*
=29	=29	=29
8C/L	8a\L	.
8C/J	8a\	.
4BB/	8g\	.
.	8g\J	.
4AA/	8f#/L	.
.	8f#/J	.
4GG/	4e/	.
=30	=30	=30
*^	*	*
8A\L	2rBByy	8cc/L	.
8A\J	.	8cc/	.
4G\	.	8b/	.
.	.	8b/J	.
2F#/	8D\L	8a\L	.
.	8D\	8a\J	.
.	8C\	4g\	.
.	8C\J	.	.
!LO:LB:g=original	!LO:LB:g=original	!	!
=31	=31	=31	=31
4D/	8AA\L	8dd\L	.
.	8BB\J	8dd\	.
4C/	4AA\	8ee\	.
.	.	8ff#\J	.
4BB/	4GG\	8gg/L	.
.	.	8gg/J	.
4r	4ryy	4gg/	.
*v	*v	*	*
*clefC3	*	*
=32	=32	=32
*	*^	*
8d\L	8ff#/L	8dd\L	.
8d\	8ff#/J	8dd\J	.
8e\	4aa/	4.cc\	.
8f#\J	.	.	.
8g\L	4gg/	.	.
8g\J	.	16b\LL	.
.	.	16a\JJ	.
4g\	8b/L	4g\	.
.	8cc/J	.	.
*clefF4	*	*	*
=33	=33	=33	=33
2r	8a/L	8f#\L	.
.	8b/J	8g\J	.
.	4cc/	4a\	.
8GG/L	2b/	2g\	.
8GG/	.	.	.
8BB/	.	.	.
8C/J	.	.	.
*	*v	*v	*
=34	=34	=34
8D\L	1r	.
8D\J	.	.
4D\	.	.
8C#X\L	.	.
8D\J	.	.
4E\	.	.
=35	=35	=35
4.D\	8d/L	.
.	8d/	.
.	8c/	.
16E\LL	8c/J	.
16F#\JJ	.	.
4.G\	8B/L	.
.	8B/J	.
.	4A/	.
8F#\	.	.
=36	=36	=36
8G\L	8B/L	.
8E\	8c/J	.
8C\	4A/	.
8D\J	.	.
4.E\	8b\L	.
.	8a\	.
.	8b\	.
8C/	8cc\J	.
=37	=37	=37
*^	*^	*
4F#/	8D\L	4a\	2reyy	.
.	8C\	.	.	.
4G/	8BB\	4g\	.	.
.	8AA\J	.	.	.
4G/	4GG\	8b/L	8g\L	.
.	.	8a/	8f#\	.
4r	4ryy	8b/	8g\	.
.	.	8cc/J	8a\J	.
=38	=38	=38	=38	=38
8d\L	2rGGyy	4a/	4f#\	.
8d\	.	.	.	.
8c\	.	4g\	4rAyy	.
8c\J	.	.	.	.
4B/	4D\	4g\	2rAyy	.
4A/	4C\	4cc\	.	.
*	*	*v	*v	*
=39	=39	=39	=39
4B/	4BB\ 4B	8dd\L	.
.	.	8b\J	.
8G/L	4D\	4aT\	.
8F#/J	.	.	.
2GG/	2rEEyy	2g\	.
=40	=40	=40	=40
2G/	4.E\	8b\L	.
.	.	8a\	.
.	.	8b\	.
.	8D\	8cc\J	.
4F#/	8D\L	4a\	.
.	8C\	.	.
4G/	8BB\	4g\	.
!LO:TX:b:t=V&colon;S&colon;	!	!	!
.	8AA\J	.	.
*v	*v	*	*
!LO:PB:g=original	!LO:PB:g=original	!
=41	=41	=41
*	*^	*
4GG/ 4G	8b/L	8g\L	.
.	8a/	8f#\	.
4r	8b/	8g\	.
.	8cc/J	8a\J	.
8d\L	4a/	2reyy	.
8d\	.	.	.
8c\	4g/	.	.
8c\J	.	.	.
*	*v	*v	*
=42	=42	=42
*^	*	*
4B/	4D\	4g\	.
4A/	4C\	4cc\	.
4B/	4D\	8dd\L	.
.	.	8b\J	.
8A/L	4D\	4a\	.
8G/J	.	.	.
*v	*v	*	*
=43	=43	=43
!	!	!LO:DY:a:t=for.
2GG/	2g\	f
!LO:TX:a:t=5	!	!
4E\	4g\	.
!LO:TX:a:t=5	!	!
4C\	4cc\	.
=44	=44	=44
!LO:TX:a:t=6	!	!
4BB/	8dd\L	.
.	8b\J	.
!LO:TX:a:t=4 3	!	!
4D\	4aT\	.
!	!LO:TX:b:i:t=fine.	!
2GG/	2g\	.
==	==	==
*-	*-	*-
!!!system-decoration: [(g1)]
!!!ENC:Anna Matuszewska
!!!END:2020-11-30
!!!ENC: Andrzej Kubiczek
!!!END: 2020-06-20
